X:2
T:The Eavesdropper, pt.2
R:jig
D:Paddy Keenan: Port an Phiobaire
D:Dolores Keane & John Faulkner: Broken Hearted I'll Wander
Z:id:hn-jig-150
M:6/8
L:1/8
K:G
gab afd|efg dBG|ceg dBG|BAG ABd|
gab afd|efg dBG|ceg dBA|BGF GBd|
~g3 fed|efg dBG|cee dBG|BAA ABd|
~g3 fed|ege dBG|cee dBA|BGF G2A|]
<abc>
